**kern	**kern
*part1	*part1
*staff2	*staff1
*I"Piano	*
*clefF4	*clefG2
*k[b-e-a-]	*k[b-e-a-]
=1	=1
2C	8cL 8e-
.	8g
.	8G
.	8gJ
=	=
4C	8cL 8e-
.	8g
4r	8cc
.	8ee-J
=	=
8GG 8G	4.ee-
8GL	.
8Bn 8d	.
8GJ	8dd
=	=
8BnL 8d	4.ff
8G	.
8d 8f	.
8GJ	8bn
=	=
*^	*
8A-L	2A-X	4.cc
8c	.	.
8e-	.	.
8cJ	.	8dd
=	=	=
8A-L	2A-X	4ee-
8c	.	.
8f#X	.	8ddL
8e-J	.	8ccJ
=	=	=
8GL	2G	4.g
8c	.	.
8e-	.	.
8cJ	.	8g
=	=	=
*	*	*^
8GL	2G	4g	4f
8c#X	.	.	.
8d	.	8anL	4f
8GJ	.	8bnJ	.
*v	*v	*	*
*	*v	*v
=	=
8CL	2e- 2cc
8c	.
8G	.
8E-J	.
=	=
4.C	4.r
=:|!	=:|!
*-	*-
!!!system-decoration: {(s1,s2)}
